X: 32041
T: Peggy's
R: jig
M: 6/8
K: Gmajor
BdB GBd|cBc E2 G|~F3 DFA|GBe d2c|
BdB GBd|cBc E2 G|~F3 DFA|AGF G2:|
ded def|gbg d2 g|fed ABd|cBc A2c|
ded def|gbg d2 g|fed cAF|AGF G2:|

